X:462
T:Quickstep
S:Bruce & Emmett's Drummers and Fifers Guide (1862), p. 46
M:2/4
L:1/16
Q:1/4=90
K:D
%%MIDI program 72
%%MIDI transpose 8
%%MIDI ratio 3 1
fg|afge fdec|dfec A2AG|FAdf gfed|cdec A2fg|afge fdec|
dfec A2AG|FAdf gedc|d2d2d2::cd|eAAA eAeA|eAfA eAfa|
gfed dcBA|BGDG TB2AG|FAdc BBed|cABc defg|afbg fedc|d2d2d2:|

